X: 36335
T: Sean Bui
R: jig
M: 6/8
K: Dmajor
A|:DAD AFA|BGB AFA|DAD AFA|B2c d2A|
DAD AFA|BGB AFA|dfd ecA|B2c d2A:|
dfd ecA|dcB AFA|dfd ecA|B2c d2A|
dfd ecA|dcB AFA|DAD AFA|B2c d2A|
dfd ecA|dcB AFA|dfd ecA|B2c dfg|
afd gec|dcB AFA|DAD AFA|B2c d3||

